X:1
T:Title
%%score { ( 1 4 ) | ( 2 3 ) }
L:1/8
M:4/4
K:F
V:1 treble nm="Grand Piano"
V:4 treble 
V:2 treble 
V:3 treble 
V:1
 z4 z2 z[Q:1/4=78] A | A3 A AccA | [B,EG]2 [A,DF]2 [CEA]3 [A,CA] | [G,EA]D z E EFFA | %4
 .[=B,A]2 GD z2 E,[Ec] | c3 d dc .[CEc]2 | [B,EG]2 [A,DF]2 [CEA]3 C | C3 D DEEC | %8
[M:7/8] [F,A,F]-[F,A,F]-[F,A,F]- [F,A,F]- [F,A,F]3 |] %9
V:2
 z4 z2 z [F,CF] | [F,CF]3 [F,CF] [CF]-[A,CF][K:bass][CE]-[C,CE] | D,2 D,2 A,,3 A,, | %3
 z F,F,G, [D,D]-[D,A,D]DC | z GG,,D, [C,B,]3 [C,C] | [F,B,E]3 [F,A,F] [F,A,F]2 z A | %6
 D,2 D,2 A,,3 [C,E,B,] | [C,E,B,]3 [C,F,B,] [C,B,]-[C,G,B,]G,E, |[M:7/8] F,,-F,,-F,,- F,,- F,,3 |] %9
V:3
 x8 | z4 .F,2[K:bass] .A,2 | x8 | D,2 D,2 .G,2 [D,A,]2 | [G,,F,]2 z2 F,2 z2 | z4 z2 C,2 | x8 | %7
 z4 .F,2 [C,B,]2 |[M:7/8] x7 |] %9
V:4
 x8 | x8 | x8 | z2 D2 z4 | z2 [F,=B,]2 G4 | x8 | x8 | x8 |[M:7/8] x7 |] %9

